;FLAVOR:Marlin
;TIME:2900
;Filament used: 1.66471m
;Layer height: 0.2
;MINX:56.831
;MINY:72.63
;MINZ:0.12
;MAXX:163.169
;MAXY:147.369
;MAXZ:1.12
;Generated with Cura_SteamEngine 4.13.1
M140 S50
M105
M190 S50
M104 S215
M105
M109 S215
M82 ;absolute extrusion mode
; Ender 3 Custom Start G-code
G92 E0 ; Reset Extruder
G28 ; Home all axes
G1 Z2.0 F3000 ; Move Z Axis up little to prevent scratching of Heat Bed
G1 X0.1 Y20 Z0.3 F5000.0 ; Move to start position
G1 X0.1 Y200.0 Z0.3 F1500.0 E15 ; Draw the first line
G1 X0.4 Y200.0 Z0.3 F5000.0 ; Move to side a little
G1 X0.4 Y20 Z0.3 F1500.0 E30 ; Draw the second line
G92 E0 ; Reset Extruder
G1 Z2.0 F3000 ; Move Z Axis up little to prevent scratching of Heat Bed
G1 X5 Y20 Z0.3 F5000.0 ; Move over to prevent blob squish
G92 E0
G92 E0
G1 F1500 E-6.5
;LAYER_COUNT:5
;LAYER:0
M107
G1 F300 Z0.32
G0 F6000 X61.001 Y75.759 Z0.32
;TYPE:SKIRT
G1 F300 Z0.12
G1 F1500 E0
G1 F1200 X62.025 Y74.944 E0.02481
G1 X62.145 Y74.86 E0.02759
G1 X62.805 Y74.433 E0.04249
G1 X63.054 Y74.285 E0.04798
G1 X63.864 Y73.85 E0.06541
G1 X65.058 Y73.362 E0.08987
G1 X65.335 Y73.268 E0.09541
G1 X66.218 Y73.01 E0.11285
G1 X66.791 Y72.887 E0.12396
G1 X67.064 Y72.836 E0.12923
G1 X67.974 Y72.706 E0.14666
G1 X68.779 Y72.658 E0.16194
G1 X69.947 Y72.633 E0.18409
G1 X70.173 Y72.631 E0.18838
G1 X150.12 Y72.63 E1.70403
G1 X151.019 Y72.642 E1.72108
G1 X151.834 Y72.686 E1.73655
G1 X152.04 Y72.705 E1.74048
G1 X153.367 Y72.913 E1.76594
G1 X153.569 Y72.958 E1.76986
G1 X154.712 Y73.281 E1.79238
G1 X155.199 Y73.459 E1.80221
G1 X155.489 Y73.573 E1.80812
G1 X156.329 Y73.946 E1.82554
G1 X156.823 Y74.208 E1.83614
G1 X156.915 Y74.26 E1.83815
G1 X158.042 Y74.996 E1.86367
G1 X158.343 Y75.221 E1.87079
G1 X159.055 Y75.803 E1.88822
G1 X159.777 Y76.512 E1.90741
G1 X159.948 Y76.697 E1.91219
G1 X160.67 Y77.567 E1.93362
G1 X160.751 Y77.676 E1.93619
G1 X161.286 Y78.469 E1.95433
G1 X161.396 Y78.649 E1.95833
G1 X161.841 Y79.454 E1.97577
G1 X162.054 Y79.909 E1.98529
G1 X162.159 Y80.148 E1.99024
G1 X162.619 Y81.406 E2.01563
G1 X162.676 Y81.599 E2.01945
G1 X162.838 Y82.216 E2.03154
G1 X162.862 Y82.32 E2.03357
G1 X163.03 Y83.224 E2.051
G1 X163.09 Y83.743 E2.0609
G1 X163.118 Y84.052 E2.06678
G1 X163.157 Y84.705 E2.07919
G1 X163.165 Y84.986 E2.08452
G1 X163.169 Y85.287 E2.09022
G1 X163.169 Y134.483 E3.02289
G1 X163.157 Y135.274 E3.03789
G1 X163.103 Y136.192 E3.05533
G1 X163.014 Y136.852 E3.06795
G1 X162.975 Y137.086 E3.07245
G1 X162.741 Y138.151 E3.09312
G1 X162.653 Y138.471 E3.09941
G1 X162.371 Y139.346 E3.11684
G1 X162.117 Y139.968 E3.12958
G1 X162.064 Y140.087 E3.13205
G1 X161.454 Y141.254 E3.15701
G1 X161.315 Y141.484 E3.16211
G1 X160.569 Y142.561 E3.18695
G1 X160.405 Y142.769 E3.19197
G1 X159.805 Y143.466 E3.2094
G1 X159.211 Y144.05 E3.2252
G1 X159.015 Y144.228 E3.23021
G1 X157.999 Y145.042 E3.2549
G1 X157.816 Y145.171 E3.25914
G1 X156.7 Y145.858 E3.28399
G1 X156.52 Y145.954 E3.28785
G1 X155.691 Y146.351 E3.30528
G1 X154.964 Y146.63 E3.32004
G1 X154.686 Y146.725 E3.32561
G1 X153.804 Y146.984 E3.34304
G1 X153.209 Y147.113 E3.35458
G1 X152.936 Y147.164 E3.35985
G1 X152.026 Y147.294 E3.37727
G1 X151.221 Y147.342 E3.39256
G1 X150.053 Y147.367 E3.41471
G1 X149.827 Y147.369 E3.41899
G1 X69.707 Y147.369 E4.93793
G1 X68.966 Y147.357 E4.95198
G1 X67.887 Y147.284 E4.97248
G1 X67.568 Y147.246 E4.97857
G1 X66.66 Y147.097 E4.99602
G1 X65.665 Y146.839 E5.01551
G1 X65.377 Y146.749 E5.02123
G1 X64.512 Y146.437 E5.03866
G1 X63.984 Y146.202 E5.04962
G1 X63.793 Y146.111 E5.05363
G1 X62.742 Y145.535 E5.07635
G1 X62.577 Y145.432 E5.08004
G1 X61.819 Y144.912 E5.09746
G1 X61.247 Y144.45 E5.1114
G1 X60.99 Y144.227 E5.11785
G1 X60.322 Y143.594 E5.1353
G1 X59.694 Y142.884 E5.15327
G1 X59.501 Y142.645 E5.15909
G1 X58.955 Y141.905 E5.17653
G1 X58.53 Y141.219 E5.19183
G1 X58.395 Y140.981 E5.19702
G1 X57.911 Y140.016 E5.21748
G1 X57.828 Y139.827 E5.2214
G1 X57.495 Y138.97 E5.23883
G1 X57.317 Y138.39 E5.25033
G1 X57.28 Y138.256 E5.25296
G1 X57.031 Y137.109 E5.27522
G1 X56.986 Y136.827 E5.28063
G1 X56.896 Y136.101 E5.2945
G1 X56.881 Y135.933 E5.2977
G1 X56.842 Y135.254 E5.31059
G1 X56.834 Y134.93 E5.31673
G1 X56.831 Y134.669 E5.32168
G1 X56.831 Y85.485 E6.25413
G1 X56.841 Y84.779 E6.26751
G1 X56.875 Y84.075 E6.28087
G1 X56.884 Y83.964 E6.28299
G1 X57.071 Y82.664 E6.30789
G1 X57.122 Y82.419 E6.31263
G1 X57.308 Y81.664 E6.32737
G1 X57.377 Y81.423 E6.33212
G1 X57.669 Y80.551 E6.34956
G1 X57.883 Y80.032 E6.3602
G1 X57.936 Y79.913 E6.36267
G1 X58.546 Y78.746 E6.38763
G1 X58.685 Y78.516 E6.39273
G1 X59.466 Y77.394 E6.41865
G1 X59.635 Y77.182 E6.42379
G1 X60.239 Y76.489 E6.44121
G1 X60.815 Y75.927 E6.45647
G1 X61.001 Y75.759 E6.46122
G0 F6000 X61.256 Y76.041
G1 F1200 X62.242 Y75.255 E6.48513
G1 X62.362 Y75.171 E6.4879
G1 X63 Y74.759 E6.5023
G1 X63.249 Y74.611 E6.50779
G1 X64.044 Y74.185 E6.52489
G1 X65.18 Y73.721 E6.54816
G1 X65.457 Y73.627 E6.5537
G1 X66.324 Y73.376 E6.57082
G1 X66.861 Y73.26 E6.58123
G1 X67.134 Y73.209 E6.5865
G1 X68.028 Y73.083 E6.60361
G1 X68.787 Y73.038 E6.61803
G1 X69.955 Y73.013 E6.64017
G1 X70.173 Y73.011 E6.64431
G1 X150.12 Y73.01 E8.15997
G1 X151.014 Y73.022 E8.17692
G1 X151.799 Y73.064 E8.19182
G1 X152.005 Y73.083 E8.19574
G1 X153.285 Y73.284 E8.2203
G1 X153.487 Y73.329 E8.22423
G1 X154.588 Y73.64 E8.24592
G1 X155.06 Y73.812 E8.25544
G1 X155.35 Y73.926 E8.26135
G1 X156.175 Y74.294 E8.27848
G1 X156.636 Y74.539 E8.28837
G1 X156.728 Y74.591 E8.29038
G1 X157.815 Y75.3 E8.31498
G1 X158.116 Y75.525 E8.3221
G1 X158.814 Y76.097 E8.33921
G1 X159.498 Y76.77 E8.35741
G1 X159.669 Y76.955 E8.36218
G1 X160.365 Y77.794 E8.38285
G1 X160.446 Y77.903 E8.38542
G1 X160.962 Y78.667 E8.4029
G1 X161.072 Y78.847 E8.4069
G1 X161.508 Y79.638 E8.42402
G1 X161.706 Y80.062 E8.43289
G1 X161.811 Y80.301 E8.43784
G1 X162.255 Y81.514 E8.46233
G1 X162.312 Y81.707 E8.46615
G1 X162.468 Y82.302 E8.47781
G1 X162.492 Y82.406 E8.47983
G1 X162.656 Y83.293 E8.49693
G1 X162.711 Y83.777 E8.50617
G1 X162.739 Y84.086 E8.51205
G1 X162.777 Y84.716 E8.52402
G1 X162.785 Y84.997 E8.52935
G1 X162.789 Y85.287 E8.53484
G1 X162.789 Y134.478 E9.46742
G1 X162.777 Y135.269 E9.48242
G1 X162.723 Y136.17 E9.49953
G1 X162.639 Y136.789 E9.51137
G1 X162.6 Y137.023 E9.51587
G1 X162.374 Y138.05 E9.53581
G1 X162.286 Y138.37 E9.5421
G1 X162.009 Y139.229 E9.55921
G1 X161.77 Y139.814 E9.57119
G1 X161.717 Y139.933 E9.57366
G1 X161.129 Y141.058 E9.59772
G1 X160.99 Y141.288 E9.60282
G1 X160.271 Y142.326 E9.62676
G1 X160.107 Y142.534 E9.63178
G1 X159.517 Y143.218 E9.6489
G1 X158.956 Y143.768 E9.6638
G1 X158.76 Y143.946 E9.66882
G1 X157.78 Y144.732 E9.69263
G1 X157.597 Y144.861 E9.69688
G1 X156.521 Y145.523 E9.72083
G1 X156.341 Y145.619 E9.7247
G1 X155.527 Y146.008 E9.7418
G1 X154.841 Y146.271 E9.75573
G1 X154.563 Y146.366 E9.7613
G1 X153.697 Y146.619 E9.7784
G1 X153.139 Y146.74 E9.78923
G1 X152.866 Y146.791 E9.79449
G1 X151.972 Y146.917 E9.81161
G1 X151.213 Y146.962 E9.82602
G1 X150.045 Y146.987 E9.84817
G1 X149.827 Y146.989 E9.85231
G1 X69.713 Y146.989 E11.37113
G1 X68.972 Y146.977 E11.38518
G1 X67.932 Y146.906 E11.40494
G1 X67.613 Y146.868 E11.41103
G1 X66.722 Y146.722 E11.42815
G1 X65.779 Y146.476 E11.44663
G1 X65.491 Y146.386 E11.45235
G1 X64.642 Y146.079 E11.46946
G1 X64.147 Y145.859 E11.47973
G1 X63.956 Y145.768 E11.48374
G1 X62.943 Y145.213 E11.50564
G1 X62.778 Y145.11 E11.50933
G1 X62.034 Y144.599 E11.52644
G1 X61.496 Y144.163 E11.53957
G1 X61.239 Y143.94 E11.54602
G1 X60.584 Y143.318 E11.56314
G1 X59.989 Y142.645 E11.58017
G1 X59.796 Y142.406 E11.586
G1 X59.261 Y141.679 E11.60311
G1 X58.861 Y141.032 E11.61753
G1 X58.726 Y140.794 E11.62272
G1 X58.259 Y139.863 E11.64246
G1 X58.176 Y139.674 E11.64638
G1 X57.85 Y138.833 E11.66348
G1 X57.684 Y138.289 E11.67426
G1 X57.647 Y138.155 E11.6769
G1 X57.406 Y137.049 E11.69835
G1 X57.361 Y136.767 E11.70377
G1 X57.274 Y136.067 E11.71714
G1 X57.259 Y135.899 E11.72034
G1 X57.222 Y135.245 E11.73276
G1 X57.214 Y134.921 E11.7389
G1 X57.211 Y134.669 E11.74368
G1 X57.211 Y85.491 E12.67601
G1 X57.221 Y84.785 E12.6894
G1 X57.253 Y84.105 E12.7023
G1 X57.262 Y83.994 E12.70441
G1 X57.443 Y82.741 E12.72841
G1 X57.494 Y82.496 E12.73316
G1 X57.674 Y81.768 E12.74738
G1 X57.743 Y81.527 E12.75213
G1 X58.029 Y80.671 E12.76924
G1 X58.23 Y80.186 E12.77919
G1 X58.283 Y80.067 E12.78166
G1 X58.871 Y78.942 E12.80573
G1 X59.01 Y78.712 E12.81082
G1 X59.763 Y77.631 E12.8358
G1 X59.932 Y77.419 E12.84094
G1 X60.525 Y76.739 E12.85804
G1 X61.07 Y76.209 E12.87246
G1 X61.256 Y76.041 E12.87721
G1 F1500 E6.37721
G1 F300 Z0.32
;MESH:collar_stay_card_no_text.stl
G0 F6000 X84.514 Y105.478 Z0.32
;TYPE:WALL-INNER
G1 F300 Z0.12
G1 F1500 E12.87721
G1 F1200 X84.845 Y105.645 E12.88424
G1 X130.802 Y105.644 E13.7555
G1 X131.291 Y105.61 E13.76479
G1 X131.572 Y105.568 E13.77018
G1 X131.979 Y105.478 E13.77808
G1 X132.308 Y105.377 E13.78461
G1 X132.632 Y105.252 E13.79119
G1 X132.952 Y105.103 E13.79788
G1 X133.314 Y104.898 E13.80577
G1 X133.681 Y104.647 E13.8142
G1 X134.008 Y104.377 E13.82224
G1 X134.367 Y104.019 E13.83185
G1 X134.549 Y103.807 E13.83715
G1 X134.795 Y103.472 E13.84503
G1 X134.983 Y103.173 E13.85172
G1 X135.142 Y102.873 E13.85816
G1 X135.282 Y102.56 E13.86466
G1 X135.404 Y102.227 E13.87138
G1 X135.495 Y101.905 E13.87773
G1 X135.585 Y101.478 E13.886
G1 X135.632 Y101.057 E13.89403
G1 X135.644 Y100.774 E13.8994
G1 X135.628 Y100.282 E13.90873
G1 X135.573 Y99.852 E13.91695
G1 X135.482 Y99.437 E13.92501
G1 X135.404 Y99.168 E13.93032
G1 X135.255 Y98.775 E13.93829
G1 X135.105 Y98.452 E13.94504
G1 X134.905 Y98.097 E13.95276
G1 X134.746 Y97.856 E13.95824
G1 X134.498 Y97.531 E13.96599
G1 X134.201 Y97.208 E13.9743
G1 X133.996 Y97.012 E13.97968
G1 X133.607 Y96.699 E13.98915
G1 X133.314 Y96.501 E13.99585
G1 X133.021 Y96.334 E14.00224
G1 X132.721 Y96.187 E14.00858
G1 X132.462 Y96.078 E14.01391
G1 X131.982 Y95.922 E14.02347
G1 X131.475 Y95.815 E14.0333
G1 X131.058 Y95.769 E14.04125
G1 X130.714 Y95.755 E14.04778
G1 X104.609 Y95.755 E14.54268
G1 X104.179 Y95.896 E14.55126
G1 X104.166 Y95.922 E14.55181
G1 X103.835 Y95.755 E14.55884
G1 X73.366 Y95.757 E15.13648
G1 X72.952 Y95.79 E15.14436
G1 X72.677 Y95.832 E15.14963
G1 X72.271 Y95.922 E15.15751
G1 X71.942 Y96.023 E15.16404
G1 X71.626 Y96.145 E15.17046
G1 X71.369 Y96.261 E15.17581
G1 X71.155 Y96.373 E15.18039
G1 X70.779 Y96.604 E15.18875
G1 X70.433 Y96.86 E15.19691
G1 X70.062 Y97.194 E15.20638
G1 X69.865 Y97.401 E15.21179
G1 X69.554 Y97.786 E15.22118
G1 X69.356 Y98.078 E15.22786
G1 X69.145 Y98.45 E15.23597
G1 X68.967 Y98.842 E15.24413
G1 X68.846 Y99.173 E15.25082
G1 X68.755 Y99.495 E15.25716
G1 X68.665 Y99.922 E15.26543
G1 X68.618 Y100.343 E15.27346
G1 X68.606 Y100.626 E15.27883
G1 X68.622 Y101.118 E15.28817
G1 X68.677 Y101.548 E15.29638
G1 X68.768 Y101.963 E15.30444
G1 X68.846 Y102.232 E15.30975
G1 X68.995 Y102.625 E15.31772
G1 X69.143 Y102.946 E15.32442
G1 X69.348 Y103.307 E15.33229
G1 X69.503 Y103.543 E15.33764
G1 X69.698 Y103.802 E15.34379
G1 X69.882 Y104.018 E15.34917
G1 X70.237 Y104.374 E15.3587
G1 X70.639 Y104.699 E15.3685
G1 X70.87 Y104.856 E15.37379
G1 X71.22 Y105.061 E15.38148
G1 X71.598 Y105.243 E15.38944
G1 X71.942 Y105.377 E15.39644
G1 X72.26 Y105.474 E15.40274
G1 X72.542 Y105.542 E15.40824
G1 X73.023 Y105.616 E15.41746
G1 X73.375 Y105.643 E15.42416
G1 X73.544 Y105.645 E15.42736
G1 X84.071 Y105.645 E15.62694
G1 X84.501 Y105.504 E15.63551
G1 X84.514 Y105.478 E15.63607
G0 F6000 X84.663 Y105.128
;TYPE:WALL-OUTER
G1 F1200 X84.935 Y105.265 E15.64184
G1 X130.789 Y105.264 E16.51115
G1 X131.25 Y105.232 E16.51991
G1 X131.503 Y105.194 E16.52476
G1 X131.882 Y105.11 E16.53212
G1 X132.184 Y105.018 E16.53811
G1 X132.483 Y104.902 E16.54419
G1 X132.778 Y104.765 E16.55035
G1 X133.113 Y104.575 E16.55766
G1 X133.452 Y104.343 E16.56544
G1 X133.752 Y104.095 E16.57282
G1 X134.088 Y103.76 E16.58182
G1 X134.251 Y103.57 E16.58656
G1 X134.481 Y103.258 E16.59391
G1 X134.654 Y102.983 E16.60007
G1 X134.8 Y102.706 E16.60601
G1 X134.93 Y102.417 E16.61202
G1 X135.042 Y102.11 E16.61821
G1 X135.126 Y101.814 E16.62404
G1 X135.209 Y101.418 E16.63172
G1 X135.253 Y101.028 E16.63916
G1 X135.264 Y100.772 E16.64401
G1 X135.249 Y100.313 E16.65272
G1 X135.198 Y99.917 E16.66029
G1 X135.114 Y99.531 E16.66778
G1 X135.043 Y99.289 E16.67256
G1 X134.904 Y98.922 E16.68
G1 X134.767 Y98.626 E16.68618
G1 X134.58 Y98.295 E16.69339
G1 X134.436 Y98.076 E16.69836
G1 X134.206 Y97.775 E16.70554
G1 X133.93 Y97.474 E16.71328
G1 X133.745 Y97.298 E16.71812
G1 X133.381 Y97.005 E16.72698
G1 X133.113 Y96.824 E16.73311
G1 X132.843 Y96.67 E16.73901
G1 X132.564 Y96.533 E16.7449
G1 X132.33 Y96.435 E16.74971
G1 X131.884 Y96.29 E16.7586
G1 X131.415 Y96.191 E16.76769
G1 X131.029 Y96.148 E16.77505
G1 X130.706 Y96.135 E16.78118
G1 X104.67 Y96.135 E17.27478
G1 X104.447 Y96.208 E17.27923
G1 X104.31 Y96.48 E17.285
G1 X104.31 Y97.555 E17.30538
G1 X104.383 Y97.778 E17.30983
G1 X104.655 Y97.915 E17.3156
G1 X115.769 Y97.916 E17.5263
G1 X116.711 Y97.988 E17.54422
G1 X130.86 Y99.097 E17.81328
G1 X131.175 Y99.161 E17.81937
G1 X131.452 Y99.277 E17.82507
G1 X131.747 Y99.477 E17.83182
G1 X131.952 Y99.688 E17.8374
G1 X132.117 Y99.935 E17.84303
G1 X132.241 Y100.232 E17.84913
G1 X132.301 Y100.531 E17.85491
G1 X132.3 Y100.88 E17.86153
G1 X132.228 Y101.205 E17.86784
G1 X132.1 Y101.496 E17.87387
G1 X131.92 Y101.749 E17.87976
G1 X131.85 Y101.826 E17.88173
G1 X131.646 Y102.003 E17.88685
G1 X131.374 Y102.163 E17.89283
G1 X131.092 Y102.261 E17.89849
G1 X130.856 Y102.303 E17.90304
G1 X115.791 Y103.482 E18.18952
G1 X115.688 Y103.485 E18.19147
G1 X84.95 Y103.485 E18.77421
G1 X84.727 Y103.558 E18.77866
G1 X84.59 Y103.83 E18.78443
G1 X84.59 Y104.905 E18.80481
G1 X84.663 Y105.128 E18.80926
G0 F6000 X84.841 Y105.218
G0 X84.653 Y105.591
G1 F1500 E12.30926
G1 F300 Z0.32
G0 F6000 X100.084 Y94.128 Z0.32
;TYPE:WALL-INNER
G1 F300 Z0.12
G1 F1500 E18.80926
G1 F1200 X100.415 Y94.295 E18.81629
G1 X130.802 Y94.294 E19.39237
G1 X131.291 Y94.26 E19.40167
G1 X131.572 Y94.218 E19.40705
G1 X131.979 Y94.128 E19.41495
G1 X132.308 Y94.027 E19.42148
G1 X132.632 Y93.902 E19.42806
G1 X132.952 Y93.753 E19.43476
G1 X133.314 Y93.548 E19.44264
G1 X133.681 Y93.297 E19.45107
G1 X134.008 Y93.027 E19.45911
G1 X134.367 Y92.669 E19.46872
G1 X134.549 Y92.457 E19.47402
G1 X134.795 Y92.122 E19.4819
G1 X134.983 Y91.823 E19.48859
G1 X135.142 Y91.523 E19.49503
G1 X135.282 Y91.21 E19.50153
G1 X135.404 Y90.877 E19.50826
G1 X135.495 Y90.555 E19.5146
G1 X135.585 Y90.128 E19.52287
G1 X135.632 Y89.707 E19.5309
G1 X135.644 Y89.424 E19.53627
G1 X135.628 Y88.932 E19.54561
G1 X135.573 Y88.502 E19.55382
G1 X135.482 Y88.087 E19.56188
G1 X135.404 Y87.818 E19.56719
G1 X135.255 Y87.425 E19.57516
G1 X135.105 Y87.102 E19.58191
G1 X134.905 Y86.747 E19.58963
G1 X134.746 Y86.506 E19.59511
G1 X134.498 Y86.181 E19.60286
G1 X134.201 Y85.858 E19.61118
G1 X133.996 Y85.662 E19.61655
G1 X133.607 Y85.349 E19.62602
G1 X133.314 Y85.151 E19.63272
G1 X133.021 Y84.984 E19.63912
G1 X132.721 Y84.837 E19.64545
G1 X132.462 Y84.728 E19.65078
G1 X131.982 Y84.572 E19.66035
G1 X131.475 Y84.465 E19.67017
G1 X131.058 Y84.419 E19.67812
G1 X130.714 Y84.405 E19.68465
G1 X120.179 Y84.405 E19.88438
G1 X119.749 Y84.546 E19.89295
G1 X119.736 Y84.572 E19.89351
G1 X119.405 Y84.405 E19.90053
G1 X73.366 Y84.407 E20.77335
G1 X72.952 Y84.44 E20.78123
G1 X72.677 Y84.482 E20.7865
G1 X72.271 Y84.572 E20.79439
G1 X71.942 Y84.673 E20.80091
G1 X71.626 Y84.795 E20.80733
G1 X71.369 Y84.911 E20.81268
G1 X71.155 Y85.023 E20.81726
G1 X70.779 Y85.254 E20.82562
G1 X70.433 Y85.51 E20.83378
G1 X70.062 Y85.844 E20.84325
G1 X69.865 Y86.051 E20.84866
G1 X69.554 Y86.436 E20.85805
G1 X69.356 Y86.728 E20.86474
G1 X69.145 Y87.1 E20.87284
G1 X68.967 Y87.492 E20.88101
G1 X68.846 Y87.823 E20.88769
G1 X68.755 Y88.145 E20.89403
G1 X68.665 Y88.572 E20.9023
G1 X68.618 Y88.993 E20.91033
G1 X68.606 Y89.276 E20.9157
G1 X68.622 Y89.768 E20.92504
G1 X68.677 Y90.198 E20.93326
G1 X68.768 Y90.613 E20.94131
G1 X68.846 Y90.882 E20.94662
G1 X68.995 Y91.275 E20.95459
G1 X69.143 Y91.596 E20.96129
G1 X69.348 Y91.957 E20.96916
G1 X69.503 Y92.193 E20.97451
G1 X69.698 Y92.452 E20.98066
