;FLAVOR:Marlin
;TIME:3146
;Filament used: 1.53401m
;Layer height: 0.2
;MINX:56.881
;MINY:72.68
;MINZ:0.12
;MAXX:163.119
;MAXY:147.319
;MAXZ:1.12
;Generated with Cura_SteamEngine 4.13.1
M140 S50
M105
M190 S50
M104 S215
M105
M109 S215
M82 ;absolute extrusion mode
; Ender 3 Custom Start G-code
G92 E0 ; Reset Extruder
G28 ; Home all axes
G1 Z2.0 F3000 ; Move Z Axis up little to prevent scratching of Heat Bed
G1 X0.1 Y20 Z0.3 F5000.0 ; Move to start position
G1 X0.1 Y200.0 Z0.3 F1500.0 E15 ; Draw the first line
G1 X0.4 Y200.0 Z0.3 F5000.0 ; Move to side a little
G1 X0.4 Y20 Z0.3 F1500.0 E30 ; Draw the second line
G92 E0 ; Reset Extruder
G1 Z2.0 F3000 ; Move Z Axis up little to prevent scratching of Heat Bed
G1 X5 Y20 Z0.3 F5000.0 ; Move over to prevent blob squish
G92 E0
G92 E0
G1 F1500 E-6.5
;LAYER_COUNT:5
;LAYER:0
M107
G1 F300 Z0.32
G0 F6000 X61.095 Y75.744 Z0.32
;TYPE:SKIRT
G1 F300 Z0.12
G1 F1500 E0
G1 F1200 X62.053 Y74.982 E0.02321
G1 X62.097 Y74.951 E0.02423
G1 X62.752 Y74.525 E0.03904
G1 X63.004 Y74.374 E0.04461
G1 X63.879 Y73.904 E0.06344
G1 X64.893 Y73.479 E0.08428
G1 X65.219 Y73.362 E0.09085
G1 X66.097 Y73.09 E0.10828
G1 X67.019 Y72.89 E0.12616
G1 X67.172 Y72.864 E0.1291
G1 X67.976 Y72.759 E0.14448
G1 X68.27 Y72.732 E0.15007
G1 X69.019 Y72.69 E0.1643
G1 X69.359 Y72.683 E0.17074
G1 X69.577 Y72.681 E0.17488
G1 X150.118 Y72.68 E1.70179
G1 X150.991 Y72.691 E1.71835
G1 X151.785 Y72.732 E1.73342
G1 X151.998 Y72.751 E1.73747
G1 X152.968 Y72.883 E1.75603
G1 X153.066 Y72.901 E1.75792
G1 X154.055 Y73.132 E1.77718
G1 X154.283 Y73.197 E1.78167
G1 X155.17 Y73.493 E1.7994
G1 X155.243 Y73.521 E1.80088
G1 X156.037 Y73.863 E1.81727
G1 X156.218 Y73.95 E1.82108
G1 X156.713 Y74.204 E1.83162
G1 X156.766 Y74.233 E1.83277
G1 X157.552 Y74.709 E1.85019
G1 X158.044 Y75.057 E1.86162
G1 X158.322 Y75.266 E1.86821
G1 X159.215 Y76.019 E1.89035
G1 X159.864 Y76.683 E1.90796
G1 X160.059 Y76.901 E1.9135
G1 X160.897 Y77.968 E1.93922
G1 X161.026 Y78.156 E1.94355
G1 X161.708 Y79.298 E1.96876
G1 X161.76 Y79.399 E1.97092
G1 X162.256 Y80.517 E1.9941
G1 X162.353 Y80.775 E1.99933
G1 X162.662 Y81.735 E2.01845
G1 X162.718 Y81.942 E2.02252
G1 X162.919 Y82.839 E2.03994
G1 X163.014 Y83.482 E2.05227
G1 X163.037 Y83.68 E2.05604
G1 X163.103 Y84.559 E2.07276
G1 X163.112 Y84.838 E2.07805
G1 X163.119 Y85.368 E2.0881
G1 X163.119 Y134.49 E3.01936
G1 X163.107 Y135.27 E3.03415
G1 X163.063 Y136.082 E3.04957
G1 X163.058 Y136.136 E3.0506
G1 X162.889 Y137.279 E3.0725
G1 X162.826 Y137.587 E3.07846
G1 X162.625 Y138.403 E3.0944
G1 X162.612 Y138.448 E3.09528
G1 X162.226 Y139.549 E3.1174
G1 X162.112 Y139.825 E3.12306
G1 X161.725 Y140.659 E3.14049
G1 X161.398 Y141.243 E3.15318
G1 X161.286 Y141.429 E3.1573
G1 X160.548 Y142.5 E3.18196
G1 X160.377 Y142.718 E3.18721
G1 X159.778 Y143.416 E3.20465
G1 X159.096 Y144.082 E3.22272
G1 X158.911 Y144.247 E3.22742
G1 X157.936 Y145.018 E3.25098
G1 X157.806 Y145.109 E3.25399
G1 X157.176 Y145.518 E3.26823
G1 X156.994 Y145.627 E3.27226
G1 X156.121 Y146.096 E3.29104
G1 X155.107 Y146.521 E3.31189
G1 X154.781 Y146.638 E3.31845
G1 X153.903 Y146.91 E3.33588
G1 X152.981 Y147.11 E3.35376
G1 X152.828 Y147.136 E3.35671
G1 X152.024 Y147.241 E3.37208
G1 X151.73 Y147.268 E3.37768
G1 X150.981 Y147.31 E3.3919
G1 X150.641 Y147.317 E3.39835
G1 X150.423 Y147.319 E3.40248
G1 X69.727 Y147.319 E4.93234
G1 X69.032 Y147.309 E4.94551
G1 X68.244 Y147.268 E4.96047
G1 X67.964 Y147.243 E4.9658
G1 X67.053 Y147.122 E4.98322
G1 X66.21 Y146.936 E4.99959
G1 X65.933 Y146.863 E5.00502
G1 X64.833 Y146.507 E5.02694
G1 X64.068 Y146.181 E5.04271
G1 X63.771 Y146.04 E5.04894
G1 X62.958 Y145.61 E5.06637
G1 X61.952 Y144.94 E5.08929
G1 X61.678 Y144.734 E5.09579
G1 X60.785 Y143.981 E5.11793
G1 X60.131 Y143.311 E5.13568
G1 X59.922 Y143.077 E5.14163
G1 X59.34 Y142.365 E5.15907
G1 X59.026 Y141.923 E5.16934
G1 X58.91 Y141.75 E5.17329
G1 X58.432 Y140.964 E5.19073
G1 X58.189 Y140.498 E5.2007
G1 X58.088 Y140.291 E5.20506
G1 X57.664 Y139.295 E5.22559
G1 X57.631 Y139.205 E5.2274
G1 X57.264 Y137.98 E5.25165
G1 X57.184 Y137.639 E5.25829
G1 X56.962 Y136.318 E5.28368
G1 X56.949 Y136.193 E5.28607
G1 X56.897 Y135.441 E5.30036
G1 X56.888 Y135.162 E5.30565
G1 X56.883 Y134.904 E5.31054
G1 X56.881 Y134.566 E5.31695
G1 X56.881 Y85.495 E6.24725
G1 X56.891 Y84.781 E6.26079
G1 X56.928 Y84.033 E6.27499
G1 X56.936 Y83.939 E6.27677
G1 X57.111 Y82.723 E6.30006
G1 X57.173 Y82.419 E6.30595
G1 X57.375 Y81.597 E6.32199
G1 X57.388 Y81.552 E6.32288
G1 X57.774 Y80.451 E6.345
G1 X57.888 Y80.175 E6.35066
G1 X58.275 Y79.341 E6.36809
G1 X58.602 Y78.757 E6.38078
G1 X58.714 Y78.571 E6.3849
G1 X59.47 Y77.478 E6.41009
G1 X59.653 Y77.246 E6.41569
G1 X60.253 Y76.549 E6.43313
G1 X60.906 Y75.913 E6.45041
G1 X61.095 Y75.744 E6.45522
G0 F6000 X61.349 Y76.027
G1 F1200 X62.272 Y75.293 E6.47758
G1 X62.316 Y75.262 E6.4786
G1 X62.947 Y74.851 E6.49287
G1 X63.199 Y74.7 E6.49844
G1 X64.043 Y74.247 E6.5166
G1 X65.022 Y73.837 E6.53672
G1 X65.348 Y73.72 E6.54329
G1 X66.21 Y73.453 E6.5604
G1 X67.083 Y73.265 E6.57733
G1 X67.236 Y73.239 E6.58027
G1 X68.011 Y73.138 E6.59509
G1 X68.305 Y73.111 E6.60068
G1 X69.027 Y73.07 E6.61439
G1 X69.367 Y73.063 E6.62084
G1 X69.577 Y73.061 E6.62482
G1 X150.118 Y73.06 E8.15174
G1 X150.986 Y73.071 E8.1682
G1 X151.751 Y73.11 E8.18272
G1 X151.964 Y73.129 E8.18677
G1 X152.9 Y73.257 E8.20468
G1 X152.998 Y73.275 E8.20657
G1 X153.951 Y73.497 E8.22512
G1 X154.179 Y73.562 E8.22962
G1 X155.034 Y73.848 E8.24671
G1 X155.107 Y73.876 E8.24819
G1 X155.872 Y74.206 E8.26399
G1 X156.053 Y74.293 E8.2678
G1 X156.53 Y74.538 E8.27796
G1 X156.583 Y74.567 E8.27911
G1 X157.355 Y75.035 E8.29622
G1 X157.815 Y75.361 E8.30691
G1 X158.093 Y75.57 E8.3135
G1 X158.955 Y76.296 E8.33487
G1 X159.581 Y76.936 E8.35184
G1 X159.776 Y77.154 E8.35739
G1 X160.583 Y78.183 E8.38218
G1 X160.712 Y78.371 E8.3865
G1 X161.37 Y79.472 E8.41082
G1 X161.422 Y79.573 E8.41297
G1 X161.9 Y80.651 E8.43533
G1 X161.997 Y80.909 E8.44055
G1 X162.295 Y81.834 E8.45898
G1 X162.351 Y82.041 E8.46304
G1 X162.548 Y82.922 E8.48016
G1 X162.637 Y83.526 E8.49173
G1 X162.66 Y83.724 E8.49551
G1 X162.723 Y84.571 E8.51161
G1 X162.732 Y84.85 E8.51691
G1 X162.739 Y85.368 E8.52673
G1 X162.739 Y134.484 E9.45788
G1 X162.727 Y135.264 E9.47267
G1 X162.685 Y136.046 E9.48752
G1 X162.68 Y136.1 E9.48855
G1 X162.516 Y137.203 E9.50969
G1 X162.453 Y137.511 E9.51565
G1 X162.26 Y138.297 E9.53099
G1 X162.247 Y138.342 E9.53188
G1 X161.875 Y139.404 E9.55321
G1 X161.761 Y139.68 E9.55887
G1 X161.38 Y140.498 E9.57598
G1 X161.073 Y141.047 E9.58791
G1 X160.961 Y141.233 E9.59202
G1 X160.249 Y142.265 E9.61579
G1 X160.078 Y142.483 E9.62104
G1 X159.49 Y143.168 E9.63816
G1 X158.843 Y143.799 E9.65529
G1 X158.658 Y143.964 E9.65999
G1 X157.719 Y144.707 E9.68269
G1 X157.589 Y144.798 E9.6857
G1 X156.981 Y145.192 E9.69944
G1 X156.799 Y145.301 E9.70346
G1 X155.957 Y145.753 E9.72158
G1 X154.978 Y146.163 E9.7417
G1 X154.652 Y146.28 E9.74826
G1 X153.79 Y146.547 E9.76537
G1 X152.917 Y146.735 E9.7823
G1 X152.764 Y146.761 E9.78524
G1 X151.989 Y146.862 E9.80006
G1 X151.695 Y146.889 E9.80566
G1 X150.973 Y146.93 E9.81937
G1 X150.633 Y146.937 E9.82582
G1 X150.423 Y146.939 E9.8298
G1 X69.732 Y146.939 E11.35956
G1 X69.037 Y146.929 E11.37274
G1 X68.278 Y146.89 E11.38715
G1 X67.998 Y146.865 E11.39247
G1 X67.103 Y146.745 E11.40959
G1 X66.307 Y146.569 E11.42505
G1 X66.03 Y146.496 E11.43048
G1 X64.969 Y146.153 E11.45162
G1 X64.231 Y145.837 E11.46684
G1 X63.934 Y145.696 E11.47307
G1 X63.136 Y145.273 E11.4902
G1 X62.18 Y144.636 E11.51197
G1 X61.906 Y144.43 E11.51847
G1 X61.045 Y143.704 E11.53982
G1 X60.414 Y143.058 E11.55694
G1 X60.205 Y142.824 E11.56289
G1 X59.634 Y142.125 E11.58
G1 X59.341 Y141.711 E11.58962
G1 X59.225 Y141.538 E11.59357
G1 X58.756 Y140.767 E11.61068
G1 X58.531 Y140.331 E11.61998
G1 X58.43 Y140.124 E11.62435
G1 X58.021 Y139.164 E11.64413
G1 X57.988 Y139.074 E11.64595
G1 X57.634 Y137.893 E11.66932
G1 X57.554 Y137.552 E11.67596
G1 X57.34 Y136.279 E11.70043
G1 X57.327 Y136.154 E11.70281
G1 X57.277 Y135.429 E11.71659
G1 X57.268 Y135.15 E11.72188
G1 X57.263 Y134.901 E11.72661
G1 X57.261 Y134.566 E11.73296
G1 X57.261 Y85.5 E12.66316
G1 X57.271 Y84.786 E12.6767
G1 X57.307 Y84.065 E12.69039
G1 X57.315 Y83.971 E12.69218
G1 X57.484 Y82.799 E12.71462
G1 X57.546 Y82.495 E12.72051
G1 X57.74 Y81.703 E12.73597
G1 X57.753 Y81.658 E12.73685
G1 X58.125 Y80.596 E12.75819
G1 X58.239 Y80.32 E12.76385
G1 X58.62 Y79.502 E12.78096
G1 X58.927 Y78.953 E12.79288
G1 X59.039 Y78.767 E12.797
G1 X59.768 Y77.713 E12.82129
G1 X59.951 Y77.481 E12.82689
G1 X60.541 Y76.798 E12.84401
G1 X61.16 Y76.196 E12.86037
G1 X61.349 Y76.027 E12.86518
G1 F1500 E6.36518
G1 F300 Z0.32
;MESH:collar_stay_card_v0.1.stl
G0 F6000 X84.49 Y105.522 Z0.32
;TYPE:WALL-INNER
G1 F300 Z0.12
G1 F1500 E12.86518
G1 F1200 X84.61 Y105.627 E12.8682
G1 X84.918 Y105.695 E12.87418
G1 X130.804 Y105.694 E13.7441
G1 X131.303 Y105.66 E13.75359
G1 X131.579 Y105.618 E13.75888
G1 X131.995 Y105.526 E13.76696
G1 X132.328 Y105.423 E13.77356
G1 X132.652 Y105.299 E13.78014
G1 X132.972 Y105.149 E13.78684
G1 X133.328 Y104.948 E13.79459
G1 X133.567 Y104.791 E13.80001
G1 X133.898 Y104.537 E13.80792
G1 X134.224 Y104.241 E13.81627
G1 X134.424 Y104.03 E13.82178
G1 X134.732 Y103.649 E13.83107
G1 X134.935 Y103.349 E13.83794
G1 X135.106 Y103.053 E13.84442
G1 X135.257 Y102.745 E13.85092
G1 X135.394 Y102.407 E13.85784
G1 X135.499 Y102.082 E13.86431
G1 X135.585 Y101.746 E13.87089
G1 X135.636 Y101.472 E13.87617
G1 X135.682 Y101.06 E13.88403
G1 X135.694 Y100.774 E13.88946
G1 X135.679 Y100.281 E13.89881
G1 X135.623 Y99.85 E13.90705
G1 X135.531 Y99.429 E13.91522
G1 X135.45 Y99.15 E13.92072
G1 X135.301 Y98.755 E13.92873
G1 X135.152 Y98.433 E13.93545
G1 X134.943 Y98.062 E13.94353
G1 X134.787 Y97.828 E13.94886
G1 X134.539 Y97.503 E13.95661
G1 X134.238 Y97.173 E13.96508
G1 X134.029 Y96.974 E13.97055
G1 X133.645 Y96.665 E13.97989
G1 X133.345 Y96.462 E13.98676
G1 X133.045 Y96.29 E13.99332
G1 X132.742 Y96.142 E13.99971
G1 X132.48 Y96.032 E14.0051
G1 X132.003 Y95.877 E14.0146
G1 X131.721 Y95.81 E14.0201
G1 X131.228 Y95.733 E14.02956
G1 X130.88 Y95.708 E14.03617
G1 X130.711 Y95.705 E14.03938
G1 X104.619 Y95.705 E14.53404
G1 X104.247 Y95.813 E14.54138
G1 X104.19 Y95.878 E14.54302
G1 X104.07 Y95.773 E14.54604
G1 X103.762 Y95.705 E14.55202
G1 X73.373 Y95.707 E15.12815
G1 X72.936 Y95.742 E15.13646
G1 X72.434 Y95.831 E15.14612
G1 X72.086 Y95.923 E15.15295
G1 X71.76 Y96.036 E15.15949
G1 X71.369 Y96.206 E15.16757
G1 X71.111 Y96.34 E15.17308
G1 X70.756 Y96.559 E15.18099
G1 X70.412 Y96.813 E15.1891
G1 X70.196 Y96.998 E15.19449
G1 X69.848 Y97.346 E15.20382
G1 X69.659 Y97.565 E15.2093
G1 X69.412 Y97.902 E15.21722
G1 X69.183 Y98.272 E15.22547
G1 X69.02 Y98.592 E15.23228
G1 X68.856 Y98.992 E15.24048
G1 X68.751 Y99.318 E15.24697
G1 X68.665 Y99.654 E15.25355
G1 X68.614 Y99.928 E15.25883
G1 X68.568 Y100.34 E15.26669
G1 X68.556 Y100.626 E15.27212
G1 X68.571 Y101.119 E15.28147
G1 X68.627 Y101.55 E15.28971
G1 X68.717 Y101.967 E15.29779
G1 X68.8 Y102.25 E15.30339
G1 X68.949 Y102.644 E15.31137
G1 X69.097 Y102.967 E15.31811
G1 X69.312 Y103.346 E15.32637
G1 X69.556 Y103.701 E15.33453
G1 X69.829 Y104.034 E15.3427
G1 X70.03 Y104.245 E15.34822
G1 X70.402 Y104.58 E15.35771
G1 X70.625 Y104.75 E15.36303
G1 X71.048 Y105.024 E15.37258
G1 X71.355 Y105.187 E15.37917
G1 X71.609 Y105.302 E15.38446
G1 X71.918 Y105.42 E15.39073
G1 X72.252 Y105.524 E15.39736
G1 X72.528 Y105.59 E15.40274
G1 X73.022 Y105.667 E15.41222
G1 X73.373 Y105.693 E15.41889
G1 X73.543 Y105.695 E15.42212
G1 X84.061 Y105.695 E15.62152
G1 X84.433 Y105.587 E15.62886
G1 X84.49 Y105.522 E15.6305
G0 F6000 X84.602 Y105.115
;TYPE:WALL-OUTER
G1 F1200 X84.787 Y105.277 E15.63516
G1 X84.959 Y105.315 E15.6385
G1 X130.791 Y105.314 E16.5074
G1 X131.261 Y105.282 E16.51633
G1 X131.509 Y105.244 E16.52109
G1 X131.898 Y105.158 E16.52864
G1 X132.204 Y105.064 E16.53471
G1 X132.503 Y104.949 E16.54078
G1 X132.798 Y104.811 E16.54696
G1 X133.13 Y104.623 E16.55419
G1 X133.347 Y104.481 E16.55911
G1 X133.654 Y104.245 E16.56645
G1 X133.958 Y103.969 E16.57423
G1 X134.138 Y103.779 E16.57919
G1 X134.426 Y103.423 E16.58787
G1 X134.613 Y103.147 E16.59419
G1 X134.77 Y102.874 E16.60017
G1 X134.91 Y102.589 E16.60619
G1 X135.037 Y102.277 E16.61257
G1 X135.134 Y101.976 E16.61857
G1 X135.214 Y101.664 E16.62467
G1 X135.26 Y101.416 E16.62946
G1 X135.303 Y101.031 E16.6368
G1 X135.314 Y100.772 E16.64171
G1 X135.3 Y100.312 E16.65044
G1 X135.248 Y99.915 E16.65803
G1 X135.163 Y99.523 E16.66563
G1 X135.089 Y99.271 E16.67061
G1 X134.95 Y98.902 E16.67809
G1 X134.813 Y98.606 E16.68427
G1 X134.619 Y98.261 E16.69178
G1 X134.478 Y98.049 E16.6966
G1 X134.247 Y97.747 E16.70381
G1 X133.966 Y97.439 E16.71172
G1 X133.778 Y97.26 E16.71664
G1 X133.419 Y96.971 E16.72537
G1 X133.144 Y96.785 E16.73167
G1 X132.867 Y96.626 E16.73772
G1 X132.585 Y96.488 E16.74368
G1 X132.348 Y96.389 E16.74854
G1 X131.9 Y96.243 E16.75748
G1 X131.648 Y96.183 E16.76239
G1 X131.185 Y96.111 E16.77127
G1 X130.863 Y96.088 E16.77739
G1 X130.707 Y96.085 E16.78035
G1 X104.673 Y96.085 E17.27391
G1 X104.46 Y96.147 E17.27812
G1 X104.298 Y96.332 E17.28278
G1 X104.26 Y96.504 E17.28612
G1 X104.26 Y97.552 E17.30598
G1 X104.322 Y97.765 E17.31019
G1 X104.507 Y97.927 E17.31485
G1 X104.679 Y97.965 E17.31819
G1 X115.765 Y97.966 E17.52836
G1 X116.707 Y98.038 E17.54627
G1 X130.854 Y99.147 E17.8153
G1 X131.148 Y99.205 E17.82098
G1 X131.434 Y99.324 E17.82685
G1 X131.702 Y99.505 E17.83298
G1 X131.91 Y99.717 E17.83862
G1 X132.077 Y99.968 E17.84433
G1 X132.189 Y100.233 E17.84979
G1 X132.252 Y100.539 E17.85571
G1 X132.251 Y100.873 E17.86204
G1 X132.188 Y101.169 E17.86778
G1 X132.048 Y101.485 E17.87433
G1 X131.884 Y101.716 E17.8797
G1 X131.675 Y101.917 E17.8852
G1 X131.432 Y102.077 E17.89071
G1 X131.16 Y102.19 E17.8963
G1 X130.85 Y102.253 E17.90229
G1 X115.79 Y103.432 E18.18868
G1 X115.687 Y103.435 E18.19063
G1 X84.953 Y103.435 E18.7733
G1 X84.74 Y103.497 E18.7775
G1 X84.578 Y103.682 E18.78216
G1 X84.54 Y103.854 E18.7855
G1 X84.54 Y104.902 E18.80537
G1 X84.602 Y105.115 E18.80958
G0 F6000 X84.753 Y105.247
G0 X84.476 Y105.562
G1 F1500 E12.30958
G1 F300 Z0.32
G0 F6000 X100.06 Y94.172 Z0.32
;TYPE:WALL-INNER
G1 F300 Z0.12
G1 F1500 E18.80958
G1 F1200 X100.18 Y94.277 E18.8126
G1 X100.488 Y94.345 E18.81858
G1 X130.804 Y94.344 E19.39332
G1 X131.303 Y94.31 E19.4028
G1 X131.579 Y94.268 E19.4081
G1 X131.995 Y94.176 E19.41617
G1 X132.328 Y94.073 E19.42278
G1 X132.652 Y93.949 E19.42936
G1 X132.972 Y93.799 E19.43606
G1 X133.328 Y93.598 E19.44381
G1 X133.567 Y93.441 E19.44923
G1 X133.898 Y93.187 E19.45714
G1 X134.224 Y92.891 E19.46549
G1 X134.424 Y92.68 E19.471
G1 X134.732 Y92.299 E19.48029
G1 X134.935 Y91.999 E19.48715
G1 X135.106 Y91.703 E19.49363
G1 X135.257 Y91.395 E19.50014
G1 X135.394 Y91.057 E19.50705
G1 X135.499 Y90.732 E19.51353
G1 X135.585 Y90.396 E19.5201
G1 X135.636 Y90.122 E19.52539
G1 X135.682 Y89.71 E19.53325
G1 X135.694 Y89.424 E19.53867
G1 X135.679 Y88.931 E19.54802
G1 X135.623 Y88.5 E19.55626
G1 X135.531 Y88.079 E19.56443
G1 X135.45 Y87.8 E19.56994
G1 X135.301 Y87.405 E19.57794
G1 X135.152 Y87.083 E19.58467
G1 X134.943 Y86.712 E19.59274
G1 X134.787 Y86.478 E19.59808
G1 X134.539 Y86.153 E19.60583
G1 X134.238 Y85.823 E19.61429
G1 X134.029 Y85.624 E19.61976
G1 X133.645 Y85.315 E19.62911
G1 X133.345 Y85.112 E19.63598
G1 X133.045 Y84.94 E19.64253
G1 X132.742 Y84.792 E19.64892
G1 X132.48 Y84.682 E19.65431
G1 X132.003 Y84.527 E19.66382
G1 X131.721 Y84.46 E19.66932
G1 X131.228 Y84.383 E19.67878
G1 X130.88 Y84.358 E19.68539
G1 X130.711 Y84.355 E19.68859
G1 X120.189 Y84.355 E19.88807
G1 X119.817 Y84.463 E19.89542
G1 X119.76 Y84.528 E19.89706
G1 X119.64 Y84.423 E19.90008
G1 X119.332 Y84.355 E19.90606
G1 X73.373 Y84.357 E20.77736
G1 X72.936 Y84.392 E20.78567
G1 X72.434 Y84.481 E20.79534
G1 X72.086 Y84.573 E20.80216
G1 X71.76 Y84.686 E20.8087
G1 X71.369 Y84.856 E20.81679
G1 X71.111 Y84.99 E20.8223
G1 X70.756 Y85.209 E20.83021
G1 X70.412 Y85.463 E20.83831
G1 X70.196 Y85.648 E20.8437
G1 X69.848 Y85.996 E20.85304
G1 X69.659 Y86.215 E20.85852
G1 X69.412 Y86.552 E20.86644
G1 X69.183 Y86.922 E20.87469
